img/label_6.svg

<svg width="143" height="29" viewBox="0 0 143 29" fill="none" xmlns="http://www.w3.org/2000/svg">
<path d="M17.2058 6.07893L8.95792 11.3405L17.2058 16.6021L8.95792 21.8636L0.710083 16.5736L8.95792 11.3121L0.710083 6.07893L8.95792 0.817383L17.2058 6.07893ZM8.91526 23.5558L17.1631 18.2943L25.411 23.5558L17.1631 28.8174L8.91526 23.5558ZM17.2058 16.5736L25.4536 11.3121L17.2058 6.07893L25.411 0.817383L33.6588 6.07893L25.411 11.3405L33.6588 16.6021L25.411 21.8636L17.2058 16.5736Z" fill="#6D7D93"/>
<path d="M40.13 6.07915H46.7994C51.0513 6.07915 54.5637 8.53928 54.5637 14.1564V15.3367C54.5637 20.9964 51.2788 23.5419 46.9274 23.5419H40.13V6.07915ZM43.8558 9.2503V20.3565H46.7141C49.1315 20.3565 50.7527 18.778 50.7527 15.2656V14.3412C50.7527 10.8288 49.0462 9.2503 46.5861 9.2503H43.8558ZM56.5404 9.42095H59.5267L60.0102 12.7059C60.579 10.4733 62.0295 9.27875 64.6602 9.27875H65.5846V13.0472H64.0487C61.0198 13.0472 60.2803 14.0995 60.2803 17.0858V23.5845H56.5973V9.42095H56.5404ZM66.324 16.7872V16.389C66.324 11.6536 69.353 9.06544 73.4769 9.06544C77.6861 9.06544 80.6298 11.6536 80.6298 16.389V16.7872C80.6298 21.4372 77.7715 23.94 73.4769 23.94C68.9121 23.8974 66.324 21.4515 66.324 16.7872ZM76.8613 16.7445V16.389C76.8613 13.7582 75.5388 12.1797 73.4342 12.1797C71.3723 12.1797 70.0071 13.6302 70.0071 16.389V16.7445C70.0071 19.2899 71.3296 20.7404 73.4342 20.7404C75.5388 20.6978 76.8613 19.2899 76.8613 16.7445ZM82.5637 9.42095H85.6353L85.9909 12.0944C86.7303 10.3026 88.3088 9.06544 90.6409 9.06544C94.2387 9.06544 96.6135 11.6536 96.6135 16.4459V16.844C96.6135 21.4941 93.9827 23.9542 90.6409 23.9542C88.4083 23.9542 86.8725 22.9446 86.1188 21.3235V28.4763H82.5211L82.5637 9.42095ZM92.8735 16.7445V16.4316C92.8735 13.616 91.423 12.2224 89.4891 12.2224C87.4271 12.2224 86.062 13.8009 86.062 16.4316V16.7018C86.062 19.2046 87.3845 20.7831 89.4464 20.7831C91.5653 20.7404 92.8735 19.3895 92.8735 16.7445ZM102.06 20.968L101.747 23.5561H98.5901V4.68555H102.188V11.9238C102.985 10.0751 104.563 9.06544 106.796 9.06544C110.18 9.1081 112.683 11.4403 112.683 16.133V16.5739C112.683 21.2666 110.308 23.9542 106.71 23.9542C104.335 23.8974 102.8 22.8024 102.06 20.968ZM108.9 16.5739V16.2183C108.9 13.6302 107.492 12.1797 105.516 12.1797C103.496 12.1797 102.089 13.8009 102.089 16.261V16.5739C102.089 19.2046 103.454 20.7404 105.473 20.7404C107.635 20.7404 108.9 19.3895 108.9 16.5739ZM114.261 16.7872V16.389C114.261 11.6536 117.29 9.06544 121.414 9.06544C125.623 9.06544 128.567 11.6536 128.567 16.389V16.7872C128.567 21.4372 125.666 23.94 121.414 23.94C116.849 23.8974 114.261 21.4515 114.261 16.7872ZM124.827 16.7445V16.389C124.827 13.7582 123.505 12.1797 121.4 12.1797C119.338 12.1797 117.973 13.6302 117.973 16.389V16.7445C117.973 19.2899 119.295 20.7404 121.4 20.7404C123.519 20.6978 124.827 19.2899 124.827 16.7445ZM133.388 16.2183L128.425 9.42095H132.677L135.535 13.6729L138.436 9.42095H142.645L137.611 16.1757L142.915 23.5561H138.749L135.507 18.8633L132.35 23.5561H127.998L133.388 16.2183Z" fill="#6D7D93"/>
</svg>

<svg width="143" height="29" fill="none" xmlns="http://www.w3.org/2000/svg"><path d="M17.206 6.079 8.958 11.34l8.248 5.261-8.248 5.262-8.248-5.29 8.248-5.262L.71 6.08 8.958.817l8.248 5.262Zm-8.29 17.477 8.247-5.262 8.248 5.262-8.248 5.261-8.248-5.261Zm8.29-6.982 8.248-5.262-8.248-5.233L25.41.817l8.248 5.262-8.248 5.262 8.248 5.261-8.248 5.262-8.205-5.29ZM40.13 6.08h6.67c4.251 0 7.764 2.46 7.764 8.076v1.18c0 5.66-3.285 8.206-7.637 8.206H40.13V6.079Zm3.726 3.17v11.107h2.858c2.418 0 4.039-1.579 4.039-5.091v-.925c0-3.512-1.707-5.09-4.167-5.09h-2.73Zm12.684.17h2.987l.483 3.286c.569-2.233 2.02-3.427 4.65-3.427h.925v3.768h-1.536c-3.03 0-3.769 1.053-3.769 4.039v6.498h-3.683V9.421h-.057Zm9.784 7.367v-.398c0-4.735 3.029-7.324 7.153-7.324 4.21 0 7.153 2.589 7.153 7.324v.398c0 4.65-2.858 7.153-7.153 7.153-4.565-.043-7.153-2.489-7.153-7.153Zm10.537-.043v-.355c0-2.63-1.322-4.21-3.427-4.21-2.062 0-3.427 1.451-3.427 4.21v.355c0 2.546 1.323 3.996 3.427 3.996 2.105-.042 3.427-1.45 3.427-3.995Zm5.703-7.323h3.071l.356 2.673c.74-1.791 2.318-3.029 4.65-3.029 3.598 0 5.972 2.589 5.972 7.38v.399c0 4.65-2.63 7.11-5.972 7.11-2.233 0-3.769-1.01-4.522-2.63v7.152H82.52l.043-19.055Zm10.31 7.323v-.312c0-2.816-1.451-4.21-3.385-4.21-2.062 0-3.427 1.579-3.427 4.21v.27c0 2.503 1.323 4.081 3.384 4.081 2.12-.043 3.428-1.393 3.428-4.039Zm9.186 4.224-.313 2.588H98.59V4.686h3.598v7.238c.797-1.849 2.375-2.859 4.608-2.859 3.384.043 5.887 2.375 5.887 7.068v.44c0 4.694-2.375 7.381-5.973 7.381-2.375-.057-3.91-1.152-4.65-2.986Zm6.84-4.394v-.356c0-2.588-1.408-4.038-3.384-4.038-2.02 0-3.427 1.62-3.427 4.081v.313c0 2.63 1.365 4.166 3.384 4.166 2.162 0 3.427-1.35 3.427-4.166Zm5.361.213v-.398c0-4.735 3.029-7.324 7.153-7.324 4.209 0 7.153 2.589 7.153 7.324v.398c0 4.65-2.901 7.153-7.153 7.153-4.565-.043-7.153-2.489-7.153-7.153Zm10.566-.043v-.355c0-2.63-1.322-4.21-3.427-4.21-2.062 0-3.427 1.451-3.427 4.21v.355c0 2.546 1.322 3.996 3.427 3.996 2.119-.042 3.427-1.45 3.427-3.995Zm8.561-.526-4.963-6.797h4.252l2.858 4.252 2.901-4.252h4.209l-5.034 6.755 5.304 7.38h-4.166l-3.242-4.693-3.157 4.693h-4.352l5.39-7.338Z" fill="#6D7D93"/></svg>
